my-code/frontend-challenge-react/src/img/logo.svg

<svg xmlns="http://www.w3.org/2000/svg" width="111" height="32"><g fill="none"><path d="M-130-24h1440v940H-130z" fill="#0A1014"/><path d="M50.478 18.79l2.176-8.33h2.397L51.72 22.512h-2.414l-2.754-8.585-2.754 8.585H41.35L38 10.46h2.482l2.2 8.296 2.67-8.296h2.43l2.686 8.33zm8.43-1.2v4.913h-2.26V10.204h2.26v4.64c.544-.646 1.462-.918 2.26-.918 2.125 0 3.11 1.48 3.11 3.315v5.27h-2.26v-4.88c0-.935-.46-1.666-1.547-1.666-.952 0-1.513.714-1.564 1.632zm7.342 2.635c0-1.496 1.105-2.33 2.5-2.533l2.057-.306c.476-.068.63-.306.63-.595 0-.595-.46-1.088-1.41-1.088-.986 0-1.53.63-1.598 1.36l-2.006-.425c.136-1.31 1.343-2.754 3.587-2.754 2.652 0 3.638 1.496 3.638 3.18v4.114c0 .442.05 1.037.102 1.326h-2.074c-.05-.22-.085-.68-.085-1.003-.425.663-1.224 1.24-2.465 1.24-1.785 0-2.873-1.207-2.873-2.516zm3.35.833c.952 0 1.836-.46 1.836-1.938v-.374l-1.887.29c-.578.085-1.037.408-1.037 1.054 0 .493.357.97 1.088.97zm9.246-9.418v2.5h1.683v2.006h-1.683v3.502c0 .73.34.97.986.97.272 0 .578-.034.697-.068v1.87c-.204.085-.612.204-1.275.204-1.632 0-2.652-.97-2.652-2.584v-3.893h-1.513v-2.006h.425c.884 0 1.292-.578 1.292-1.326V11.65h2.04zm2.94-.068c0-.663.56-1.24 1.36-1.24.9 0 1.48.748 1.48 1.65 0 2.278-1.564 3.11-2.635 3.213v-1.037c.646-.102 1.36-.663 1.394-1.445a.69.69 0 0 1-.357.085c-.765 0-1.24-.5-1.24-1.224zm3.16 8.602l1.938-.425c.05.663.544 1.275 1.53 1.275.748 0 1.105-.39 1.105-.833 0-.374-.255-.68-.9-.816l-1.105-.255c-1.615-.357-2.346-1.326-2.346-2.5 0-1.496 1.326-2.737 3.128-2.737 2.38 0 3.18 1.513 3.28 2.414l-1.887.425c-.068-.493-.425-1.122-1.377-1.122-.595 0-1.07.357-1.07.833 0 .408.306.663.765.748l1.2.255c1.65.34 2.482 1.343 2.482 2.567 0 1.36-1.054 2.754-3.247 2.754-2.516 0-3.383-1.632-3.485-2.584zm15.38 2.33h-2.26v-8.364h2.26v8.364zm-2.533-11.1c0-.782.63-1.41 1.394-1.41.782 0 1.394.63 1.394 1.41 0 .748-.612 1.377-1.394 1.377-.765 0-1.394-.63-1.394-1.377zm7.393 6.3v4.81h-2.26v-8.364h2.193v1.037c.5-.867 1.513-1.258 2.414-1.258 2.074 0 3.026 1.48 3.026 3.315v5.27h-2.26v-4.88c0-.935-.46-1.666-1.547-1.666-.986 0-1.564.765-1.564 1.734z" fill="#fff"/><circle cx="16" cy="16" r="14.5" stroke="#fff" stroke-width="3"/><path d="M14.554 11.033l6.8 4.514a1 1 0 0 1 .002 1.664l-6.8 4.54A1 1 0 0 1 13 20.921v-9.055a1 1 0 0 1 1.554-.833z" fill="#FF9F1C"/></g></svg>

<?xml version="1.0" encoding="UTF-8"?>
<svg width="111px" height="32px" viewBox="0 0 111 32" version="1.1" xmlns="http://www.w3.org/2000/svg" xmlns:xlink="http://www.w3.org/1999/xlink">
    <!-- Generator: Sketch 51 (57462) - http://www.bohemiancoding.com/sketch -->
    <title>logo</title>
    <desc>Created with Sketch.</desc>
    <defs></defs>
    <g id="🍿-Movie-search" stroke="none" stroke-width="1" fill="none" fill-rule="evenodd">
        <g id="1.Search" transform="translate(-130.000000, -24.000000)">
            <rect fill="#0A1014" x="0" y="0" width="1440" height="940"></rect>
            <g id="logo" transform="translate(130.000000, 24.000000)">
                <g id="Group-2">
                    <path d="M50.478,18.789 L52.654,10.459 L55.051,10.459 L51.719,22.512 L49.305,22.512 L46.551,13.927 L43.797,22.512 L41.349,22.512 L38,10.459 L40.482,10.459 L42.692,18.755 L45.361,10.459 L47.792,10.459 L50.478,18.789 Z M58.908,17.599 L58.908,22.512 L56.647,22.512 L56.647,10.204 L58.908,10.204 L58.908,14.845 C59.452,14.199 60.37,13.927 61.169,13.927 C63.294,13.927 64.28,15.406 64.28,17.242 L64.28,22.512 L62.019,22.512 L62.019,17.633 C62.019,16.698 61.56,15.967 60.472,15.967 C59.52,15.967 58.959,16.681 58.908,17.599 Z M66.25,20.234 C66.25,18.738 67.355,17.905 68.749,17.701 L70.806,17.395 C71.282,17.327 71.435,17.089 71.435,16.8 C71.435,16.205 70.976,15.712 70.024,15.712 C69.038,15.712 68.494,16.341 68.426,17.072 L66.42,16.647 C66.556,15.338 67.763,13.893 70.007,13.893 C72.659,13.893 73.645,15.389 73.645,17.072 L73.645,21.186 C73.645,21.628 73.696,22.223 73.747,22.512 L71.673,22.512 C71.622,22.291 71.588,21.832 71.588,21.509 C71.163,22.172 70.364,22.75 69.123,22.75 C67.338,22.75 66.25,21.543 66.25,20.234 Z M69.599,21.067 C70.551,21.067 71.435,20.608 71.435,19.129 L71.435,18.755 L69.548,19.044 C68.97,19.129 68.511,19.452 68.511,20.098 C68.511,20.591 68.868,21.067 69.599,21.067 Z M78.845,11.649 L78.845,14.148 L80.528,14.148 L80.528,16.154 L78.845,16.154 L78.845,19.656 C78.845,20.387 79.185,20.625 79.831,20.625 C80.103,20.625 80.409,20.591 80.528,20.557 L80.528,22.427 C80.324,22.512 79.916,22.631 79.253,22.631 C77.621,22.631 76.601,21.662 76.601,20.047 L76.601,16.154 L75.088,16.154 L75.088,14.148 L75.513,14.148 C76.397,14.148 76.805,13.57 76.805,12.822 L76.805,11.649 L78.845,11.649 Z M81.784,11.581 C81.784,10.918 82.345,10.34 83.144,10.34 C84.045,10.34 84.623,11.088 84.623,11.989 C84.623,14.267 83.059,15.1 81.988,15.202 L81.988,14.165 C82.634,14.063 83.348,13.502 83.382,12.72 C83.297,12.771 83.178,12.805 83.025,12.805 C82.26,12.805 81.784,12.295 81.784,11.581 Z M84.944,20.183 L86.882,19.758 C86.933,20.421 87.426,21.033 88.412,21.033 C89.16,21.033 89.517,20.642 89.517,20.2 C89.517,19.826 89.262,19.52 88.616,19.384 L87.511,19.129 C85.896,18.772 85.165,17.803 85.165,16.63 C85.165,15.134 86.491,13.893 88.293,13.893 C90.673,13.893 91.472,15.406 91.574,16.307 L89.687,16.732 C89.619,16.239 89.262,15.61 88.31,15.61 C87.715,15.61 87.239,15.967 87.239,16.443 C87.239,16.851 87.545,17.106 88.004,17.191 L89.194,17.446 C90.843,17.786 91.676,18.789 91.676,20.013 C91.676,21.373 90.622,22.767 88.429,22.767 C85.913,22.767 85.046,21.135 84.944,20.183 Z M100.325,22.512 L98.064,22.512 L98.064,14.148 L100.325,14.148 L100.325,22.512 Z M97.792,11.411 C97.792,10.629 98.421,10 99.186,10 C99.968,10 100.58,10.629 100.58,11.411 C100.58,12.159 99.968,12.788 99.186,12.788 C98.421,12.788 97.792,12.159 97.792,11.411 Z M105.185,17.701 L105.185,22.512 L102.924,22.512 L102.924,14.148 L105.117,14.148 L105.117,15.185 C105.627,14.318 106.63,13.927 107.531,13.927 C109.605,13.927 110.557,15.406 110.557,17.242 L110.557,22.512 L108.296,22.512 L108.296,17.633 C108.296,16.698 107.837,15.967 106.749,15.967 C105.763,15.967 105.185,16.732 105.185,17.701 Z" id="What’s-in" fill="#FFFFFF"></path>
                    <g id="Group">
                        <circle id="Oval-2" stroke="#FFFFFF" stroke-width="3" cx="16" cy="16" r="14.5"></circle>
                        <path d="M14.553647,11.0329275 L21.3436182,15.5471758 C21.8035342,15.8529465 21.9284935,16.4736583 21.6227228,16.9335742 C21.54966,17.0434694 21.455568,17.1378165 21.345871,17.2111766 L14.5558998,21.7519843 C14.0968134,22.0589993 13.4757656,21.9357211 13.1687507,21.4766348 C13.058729,21.3121169 13,21.1186514 13,20.920735 L13,11.865679 C13,11.3133942 13.4477153,10.865679 14,10.865679 C14.196994,10.865679 14.3895999,10.9238624 14.553647,11.0329275 Z" id="Path" fill="#FF9F1C"></path>
                    </g>
                </g>
            </g>
        </g>
    </g>
</svg>
